Newaita-dark/apps/24/fluid-demo.svg

<svg height="24" viewBox="0 0 24 24" width="24" xmlns="http://www.w3.org/2000/svg" xmlns:xlink="http://www.w3.org/1999/xlink"><linearGradient id="a"><stop offset="0" stop-opacity=".313726"/><stop offset=".222222" stop-opacity=".27451"/><stop offset="1" stop-opacity="0"/></linearGradient><radialGradient id="b" cx="450.908936" cy="189.579361" gradientTransform="matrix(.00000013 -.0585994 -.105479 -.00000008 33.392364 47.696497)" gradientUnits="userSpaceOnUse" r="21.166656" xlink:href="#a"/><radialGradient id="c" cx="450.908936" cy="189.579361" gradientTransform="matrix(-.00000013 .0585994 .105479 .00000008 -9.577589 -5.645612)" gradientUnits="userSpaceOnUse" r="21.166656" xlink:href="#a"/><radialGradient id="d" cx="450.908936" cy="189.579361" gradientTransform="matrix(-.00000013 -.0585994 .105479 -.00000008 -9.577589 47.696497)" gradientUnits="userSpaceOnUse" r="21.166656" xlink:href="#a"/><radialGradient id="e" cx="450.908936" cy="189.579361" gradientTransform="matrix(.00000013 .0585994 -.105479 .00000008 33.392362 -5.645612)" gradientUnits="userSpaceOnUse" r="21.166656" xlink:href="#a"/><linearGradient id="f" gradientTransform="matrix(.01002 0 0 .0468795 9.34904 10.079088)" gradientUnits="userSpaceOnUse" x1="255.323059" x2="255.323044" y1="233.5" y2="254.666656"><stop offset="0" stop-opacity=".27451"/><stop offset="1" stop-opacity="0"/></linearGradient><linearGradient id="g" gradientUnits="userSpaceOnUse" x1="232.833328" x2="232.833328" y1="233.5" y2="-168.666656"><stop offset="0" stop-color="#ef5350"/><stop offset="1" stop-color="#e57373"/></linearGradient><linearGradient id="h" gradientUnits="userSpaceOnUse" x1="1.99583635978" x2="1.99583635978" y1="1.08573611038" y2=".19513093642"><stop offset="0" stop-color="#e0e0e0"/><stop offset="1" stop-color="#eee"/></linearGradient><path d="m13.644531 21.027344h1.984375v-.996094h-1.984375zm0 0" fill="url(#b)"/><path d="m10.171875 21.027344h-1.984375v.992187h1.984375zm0 0" fill="url(#c)"/><path d="m10.171875 21.027344h-1.984375v-.996094h1.984375zm0 0" fill="url(#d)"/><path d="m13.644531 21.027344h1.984375v.992187h-1.984375zm0 0" fill="url(#e)"/><path d="m10.171875 20.777344h3.472656v1.242187h-3.472656zm0 0" fill="url(#f)"/><path d="m253.975747-168.671091c111.072726 0 201.147458 89.991406 201.147458 201.064133 0 111.072726-90.074732 201.147458-201.147458 201.147458-110.989402 0-201.064133-90.074732-201.064133-201.147458 0-111.072727 90.074731-201.064133 201.064133-201.064133zm0 0" fill="url(#g)" stroke="#333" stroke-linecap="round" stroke-width="3" transform="matrix(.0468795 0 0 .0468795 0 10.079087)"/><path d="m11.90625 21.027344c-5.222656 0-9.425781-4.207032-9.425781-9.429688 0-.03125 0-.058594 0-.089844.050781 5.179688 4.234375 9.332032 9.425781 9.332032s9.378906-4.152344 9.425781-9.332032c0 .03125.003907.058594.003907.089844 0 5.222656-4.207032 9.429688-9.429688 9.429688zm0 0" fill-opacity=".196078"/><path d="m11.90625 2.171875c-5.222656 0-9.425781 4.203125-9.425781 9.425781v.09375c.050781-5.179687 4.234375-9.335937 9.425781-9.335937s9.378906 4.15625 9.425781 9.335937c0-.03125.003907-.0625.003907-.09375 0-5.222656-4.207032-9.425781-9.429688-9.425781zm0 0" fill="#fff" fill-opacity=".392157"/><path d="m11.90625 2.101562c-5.257812 0-9.496094 4.238282-9.496094 9.496094 0 5.261719 4.238282 9.5 9.496094 9.5 5.261719 0 9.5-4.238281 9.5-9.5 0-5.257812-4.238281-9.496094-9.5-9.496094zm0 .140626c5.1875 0 9.359375 4.171874 9.359375 9.355468 0 5.1875-4.171875 9.359375-9.359375 9.359375-5.183594 0-9.355469-4.171875-9.355469-9.359375 0-5.183594 4.171875-9.355468 9.355469-9.355468zm0 0" fill="#212121"/><path d="m7.511719 7.292969 1.996093 3.183593-3.476562-.800781 4.703125 3.953125-.195313.210938-.101562.109375s.074219.207031.164062.453125l-2.875 1.414062h3.390626l1.214843-.84375 2.867188-1.992187 1.300781-.898438-.179688-2.65625v-.167969l1.441407.167969-1.441407-1.546875-1.855468.28125-.332032.046875-.601562 1.46875-.355469.636719zm0 0" fill="url(#h)"/><path d="m7.511719 7.292969.351562.558593 5.3125 2.832032.355469-.632813.601562-1.46875.332032-.050781 1.855468-.28125 1.050782 1.128906.390625.046875-1.441407-1.546875-1.855468.28125-.332032.046875-.601562 1.46875-.355469.636719zm8.808593 2.335937v.167969l.15625 2.300781.023438-.015625-.164062-2.453125zm-10.289062.046875.609375.511719 2.867187.660156-.273437-.433594zm4.507812 4.160157v.003906l-.101562.109375s.058594.15625.097656.265625l.003906-.003906.195313-.210938zm-.050781.625-2.761719 1.355468h.757813l2.117187-1.042968c-.0625-.171876-.085937-.238282-.113281-.3125zm0 0" fill="#fff" fill-opacity=".970968"/><path d="m7.511719 7.667969 1.722656 2.746093.273437.0625-1.644531-2.625zm8.808593 1.589843v.167969l.015626.203125 1.425781.167969-.390625-.417969zm-10.289062.792969 4.507812 3.785157.195313-.207032-4.09375-3.441406zm10.445312 2.046875-1.277343.882813-2.867188 1.992187-1.214843.84375h-2.632813l-.757813.371094h3.390626l1.214843-.84375 2.867188-1.988281 1.300781-.902344zm-5.941406 2.117188-.097656.105468s.039062.105469.050781.140626l.113281-.058594c-.035156-.101563-.039062-.109375-.066406-.1875zm0 0" fill-opacity=".235294"/><path d="m605.61127 587.975369 160.929505 256.668389-280.28818-64.560761 379.176369 318.709706-15.746527 17.006249-8.188194 8.818055s5.983681 16.691319 13.227083 36.531943l-231.788877 114.004855h273.359708l97.943398-68.024996 231.159015-160.614575 104.87187-72.434024-14.486805-214.152767v-13.542013l116.209369 13.542013-116.209369-124.712494-149.592006 22.674999-26.769096 3.779167-48.499303 118.413882-28.658679 51.333678zm0 0" fill="none" stroke="#212121" stroke-width="11.338582" transform="matrix(.0124035 0 0 .0124035 .000002 -.000001)"/></svg>

<?xml version="1.0" encoding="UTF-8"?>
<svg xmlns="http://www.w3.org/2000/svg" xmlns:xlink="http://www.w3.org/1999/xlink" width="24px" height="24px" viewBox="0 0 24 24" version="1.1">
<defs>
<radialGradient id="radial0" gradientUnits="userSpaceOnUse" cx="450.908936" cy="189.579361" fx="450.908936" fy="189.579361" r="21.166656" gradientTransform="matrix(0.000000130628,-0.0585994,-0.105479,-0.0000000761539,33.392364,47.696497)">
<stop offset="0" style="stop-color:rgb(0%,0%,0%);stop-opacity:0.313726;"/>
<stop offset="0.222222" style="stop-color:rgb(0%,0%,0%);stop-opacity:0.27451;"/>
<stop offset="1" style="stop-color:rgb(0%,0%,0%);stop-opacity:0;"/>
</radialGradient>
<radialGradient id="radial1" gradientUnits="userSpaceOnUse" cx="450.908936" cy="189.579361" fx="450.908936" fy="189.579361" r="21.166656" gradientTransform="matrix(-0.000000130628,0.0585994,0.105479,0.0000000761539,-9.577589,-5.645612)">
<stop offset="0" style="stop-color:rgb(0%,0%,0%);stop-opacity:0.313726;"/>
<stop offset="0.222222" style="stop-color:rgb(0%,0%,0%);stop-opacity:0.27451;"/>
<stop offset="1" style="stop-color:rgb(0%,0%,0%);stop-opacity:0;"/>
</radialGradient>
<radialGradient id="radial2" gradientUnits="userSpaceOnUse" cx="450.908936" cy="189.579361" fx="450.908936" fy="189.579361" r="21.166656" gradientTransform="matrix(-0.000000130628,-0.0585994,0.105479,-0.0000000761539,-9.577589,47.696497)">
<stop offset="0" style="stop-color:rgb(0%,0%,0%);stop-opacity:0.313726;"/>
<stop offset="0.222222" style="stop-color:rgb(0%,0%,0%);stop-opacity:0.27451;"/>
<stop offset="1" style="stop-color:rgb(0%,0%,0%);stop-opacity:0;"/>
</radialGradient>
<radialGradient id="radial3" gradientUnits="userSpaceOnUse" cx="450.908936" cy="189.579361" fx="450.908936" fy="189.579361" r="21.166656" gradientTransform="matrix(0.000000130628,0.0585994,-0.105479,0.0000000761539,33.392362,-5.645612)">
<stop offset="0" style="stop-color:rgb(0%,0%,0%);stop-opacity:0.313726;"/>
<stop offset="0.222222" style="stop-color:rgb(0%,0%,0%);stop-opacity:0.27451;"/>
<stop offset="1" style="stop-color:rgb(0%,0%,0%);stop-opacity:0;"/>
</radialGradient>
<linearGradient id="linear0" gradientUnits="userSpaceOnUse" x1="255.323059" y1="233.5" x2="255.323044" y2="254.666656" gradientTransform="matrix(0.01002,0,0,0.0468795,9.34904,10.079088)">
<stop offset="0" style="stop-color:rgb(0%,0%,0%);stop-opacity:0.27451;"/>
<stop offset="1" style="stop-color:rgb(0%,0%,0%);stop-opacity:0;"/>
</linearGradient>
<linearGradient id="linear1" gradientUnits="userSpaceOnUse" x1="232.833328" y1="233.5" x2="232.833328" y2="-168.666656" gradientTransform="matrix(1,0,0,1,0,0)">
<stop offset="0" style="stop-color:rgb(93.725491%,32.549021%,31.37255%);stop-opacity:1;"/>
<stop offset="1" style="stop-color:rgb(89.803922%,45.09804%,45.09804%);stop-opacity:1;"/>
</linearGradient>
<linearGradient id="linear2" gradientUnits="userSpaceOnUse" x1="160.908966" y1="87.534737" x2="160.908966" y2="15.732006" gradientTransform="matrix(0.0124035,0,0,0.0124035,0.00000195025,-0.000000645799)">
<stop offset="0" style="stop-color:rgb(87.843138%,87.843138%,87.843138%);stop-opacity:1;"/>
<stop offset="1" style="stop-color:rgb(93.333334%,93.333334%,93.333334%);stop-opacity:1;"/>
</linearGradient>
</defs>
<g id="surface1">
<path style=" stroke:none;fill-rule:nonzero;fill:url(#radial0);" d="M 13.644531 21.027344 L 15.628906 21.027344 L 15.628906 20.03125 L 13.644531 20.03125 Z M 13.644531 21.027344 "/>
<path style=" stroke:none;fill-rule:nonzero;fill:url(#radial1);" d="M 10.171875 21.027344 L 8.1875 21.027344 L 8.1875 22.019531 L 10.171875 22.019531 Z M 10.171875 21.027344 "/>
<path style=" stroke:none;fill-rule:nonzero;fill:url(#radial2);" d="M 10.171875 21.027344 L 8.1875 21.027344 L 8.1875 20.03125 L 10.171875 20.03125 Z M 10.171875 21.027344 "/>
<path style=" stroke:none;fill-rule:nonzero;fill:url(#radial3);" d="M 13.644531 21.027344 L 15.628906 21.027344 L 15.628906 22.019531 L 13.644531 22.019531 Z M 13.644531 21.027344 "/>
<path style=" stroke:none;fill-rule:nonzero;fill:url(#linear0);" d="M 10.171875 20.777344 L 13.644531 20.777344 L 13.644531 22.019531 L 10.171875 22.019531 Z M 10.171875 20.777344 "/>
<path style="fill-rule:nonzero;fill:url(#linear1);stroke-width:3;stroke-linecap:round;stroke-linejoin:miter;stroke:rgb(20%,20%,20%);stroke-opacity:1;stroke-miterlimit:4;" d="M 253.975747 -168.671091 C 365.048473 -168.671091 455.123205 -78.679685 455.123205 32.393042 C 455.123205 143.465768 365.048473 233.5405 253.975747 233.5405 C 142.986345 233.5405 52.911614 143.465768 52.911614 32.393042 C 52.911614 -78.679685 142.986345 -168.671091 253.975747 -168.671091 Z M 253.975747 -168.671091 " transform="matrix(0.0468795,0,0,0.0468795,0,10.079087)"/>
<path style=" stroke:none;fill-rule:nonzero;fill:rgb(0%,0%,0%);fill-opacity:0.196078;" d="M 11.90625 21.027344 C 6.683594 21.027344 2.480469 16.820312 2.480469 11.597656 C 2.480469 11.566406 2.480469 11.539062 2.480469 11.507812 C 2.53125 16.6875 6.714844 20.839844 11.90625 20.839844 C 17.097656 20.839844 21.285156 16.6875 21.332031 11.507812 C 21.332031 11.539062 21.335938 11.566406 21.335938 11.597656 C 21.335938 16.820312 17.128906 21.027344 11.90625 21.027344 Z M 11.90625 21.027344 "/>
<path style=" stroke:none;fill-rule:nonzero;fill:rgb(100%,100%,100%);fill-opacity:0.392157;" d="M 11.90625 2.171875 C 6.683594 2.171875 2.480469 6.375 2.480469 11.597656 C 2.480469 11.628906 2.480469 11.660156 2.480469 11.691406 C 2.53125 6.511719 6.714844 2.355469 11.90625 2.355469 C 17.097656 2.355469 21.285156 6.511719 21.332031 11.691406 C 21.332031 11.660156 21.335938 11.628906 21.335938 11.597656 C 21.335938 6.375 17.128906 2.171875 11.90625 2.171875 Z M 11.90625 2.171875 "/>
<path style=" stroke:none;fill-rule:nonzero;fill:rgb(12.941177%,12.941177%,12.941177%);fill-opacity:1;" d="M 11.90625 2.101562 C 6.648438 2.101562 2.410156 6.339844 2.410156 11.597656 C 2.410156 16.859375 6.648438 21.097656 11.90625 21.097656 C 17.167969 21.097656 21.40625 16.859375 21.40625 11.597656 C 21.40625 6.339844 17.167969 2.101562 11.90625 2.101562 Z M 11.90625 2.242188 C 17.09375 2.242188 21.265625 6.414062 21.265625 11.597656 C 21.265625 16.785156 17.09375 20.957031 11.90625 20.957031 C 6.722656 20.957031 2.550781 16.785156 2.550781 11.597656 C 2.550781 6.414062 6.722656 2.242188 11.90625 2.242188 Z M 11.90625 2.242188 "/>
<path style=" stroke:none;fill-rule:nonzero;fill:url(#linear2);" d="M 7.511719 7.292969 L 9.507812 10.476562 L 6.03125 9.675781 L 10.734375 13.628906 L 10.539062 13.839844 L 10.4375 13.949219 C 10.4375 13.949219 10.511719 14.15625 10.601562 14.402344 L 7.726562 15.816406 L 11.117188 15.816406 L 12.332031 14.972656 L 15.199219 12.980469 L 16.5 12.082031 L 16.320312 9.425781 L 16.320312 9.257812 L 17.761719 9.425781 L 16.320312 7.878906 L 14.464844 8.160156 L 14.132812 8.207031 L 13.53125 9.675781 L 13.175781 10.3125 Z M 7.511719 7.292969 "/>
<path style=" stroke:none;fill-rule:nonzero;fill:rgb(100%,100%,100%);fill-opacity:0.970968;" d="M 7.511719 7.292969 L 7.863281 7.851562 L 13.175781 10.683594 L 13.53125 10.050781 L 14.132812 8.582031 L 14.464844 8.53125 L 16.320312 8.25 L 17.371094 9.378906 L 17.761719 9.425781 L 16.320312 7.878906 L 14.464844 8.160156 L 14.132812 8.207031 L 13.53125 9.675781 L 13.175781 10.3125 Z M 16.320312 9.628906 L 16.320312 9.796875 L 16.476562 12.097656 L 16.5 12.082031 L 16.335938 9.628906 Z M 6.03125 9.675781 L 6.640625 10.1875 L 9.507812 10.847656 L 9.234375 10.414062 Z M 10.539062 13.835938 L 10.539062 13.839844 L 10.4375 13.949219 C 10.4375 13.949219 10.496094 14.105469 10.535156 14.214844 L 10.539062 14.210938 L 10.734375 14 Z M 10.488281 14.460938 L 7.726562 15.816406 L 8.484375 15.816406 L 10.601562 14.773438 C 10.539062 14.601562 10.515625 14.535156 10.488281 14.460938 Z M 10.488281 14.460938 "/>
<path style=" stroke:none;fill-rule:nonzero;fill:rgb(0%,0%,0%);fill-opacity:0.235294;" d="M 7.511719 7.667969 L 9.234375 10.414062 L 9.507812 10.476562 L 7.863281 7.851562 Z M 16.320312 9.257812 L 16.320312 9.425781 L 16.335938 9.628906 L 17.761719 9.796875 L 17.371094 9.378906 Z M 6.03125 10.050781 L 10.539062 13.835938 L 10.734375 13.628906 L 6.640625 10.1875 Z M 16.476562 12.097656 L 15.199219 12.980469 L 12.332031 14.972656 L 11.117188 15.816406 L 8.484375 15.816406 L 7.726562 16.1875 L 11.117188 16.1875 L 12.332031 15.34375 L 15.199219 13.355469 L 16.5 12.453125 Z M 10.535156 14.214844 L 10.4375 14.320312 C 10.4375 14.320312 10.476562 14.425781 10.488281 14.460938 L 10.601562 14.402344 C 10.566406 14.300781 10.5625 14.292969 10.535156 14.214844 Z M 10.535156 14.214844 "/>
<path style="fill:none;stroke-width:11.338582;stroke-linecap:butt;stroke-linejoin:miter;stroke:rgb(12.941177%,12.941177%,12.941177%);stroke-opacity:1;stroke-miterlimit:4;" d="M 605.61127 587.975369 L 766.540775 844.643758 L 486.252595 780.082997 L 865.428964 1098.792703 L 849.682437 1115.798952 L 841.494243 1124.617007 C 841.494243 1124.617007 847.477924 1141.308326 854.721326 1161.14895 L 622.932449 1275.153805 L 896.292157 1275.153805 L 994.235555 1207.128809 L 1225.39457 1046.514234 L 1330.26644 974.08021 L 1315.779635 759.927443 L 1315.779635 746.38543 L 1431.989004 759.927443 L 1315.779635 635.214949 L 1166.187629 657.889948 L 1139.418533 661.669115 L 1090.91923 780.082997 L 1062.260551 831.416675 Z M 605.61127 587.975369 " transform="matrix(0.0124035,0,0,0.0124035,0.00000195025,-0.000000645799)"/>
</g>
</svg>
